X:232
T:Illegible Jig,The. JaW.232
M:6/8
L:1/8
Q:3/8=120
S:James Winder Ms, Lancashire, 1835-41
R:.Jig
O:England
A:Wyresdale,Lancashire
N:Title & Key Sig Illegible
Z:vmp.Chris Partington, Aug 2004
K:G
"_Key Sig Illegible"B2B dBG|A2A e2d|B2B dBG|B3d2:|!
|:(e/f/)|gfe dcB|A2A e2f|gfe dBG|B3d2(e/f/)|!
gfe dcB|A2A e2d|B2B dBG|B3d2:|

